X:38
T: Totenlied
N: D0040
O: Europa, Mitteleuropa, Lothringen, Rechicourt ( Kr. Saarburg )
N: Verzierungen
R: geistliches Lied, Tod, Totentanz
M: 6/4
L: 1/4
K: G
D | G2GA2A | B3zz
A | A2Bc2d | B2AA2
B | c2BBAG | A3zz
B | B2AA2G | GABA2
B | B2AA2G | GABA2
B | d2AB2B | G3zz

@@@ Tune index: 2560
